Numix-GalliumOS/64/devices/battery-low.svg

<?xml version="1.0" encoding="UTF-8" standalone="yes"?>
<svg xmlns="http://www.w3.org/2000/svg" xmlns:xlink="http://www.w3.org/1999/xlink" width="64px" height="64px" viewBox="0 0 48 48" version="1.1">
  <defs>
    <linearGradient id="linear0" gradientUnits="userSpaceOnUse" x1="22.454058" y1="-7" x2="22.454058" y2="23" gradientTransform="matrix(1.125,0,0,1.125,-2.999998,-3)">
      <stop offset="0" style="stop-color:rgb(51.372549%,58.039216%,58.823529%);stop-opacity:1;"/>
      <stop offset="1" style="stop-color:rgb(40%,46.27451%,47.058824%);stop-opacity:1;"/>
    </linearGradient>
  </defs>
  <g id="surface1">
    <path style=" stroke:none;fill-rule:nonzero;fill:url(#linear0);" d="M 21.75 6 C 20.503906 6 19.5 7.003906 19.5 8.25 L 19.5 9 L 17.25 9 C 16.003906 9 15 10.003906 15 11.25 L 15 39.75 C 15 40.996094 16.003906 42 17.25 42 L 30.75 42 C 31.996094 42 33 40.996094 33 39.75 L 33 11.25 C 33 10.003906 31.996094 9 30.75 9 L 28.5 9 L 28.5 8.25 C 28.5 7.003906 27.496094 6 26.25 6 Z M 21.75 6 "/>
    <path style=" stroke:none;fill-rule:nonzero;fill:rgb(43.529412%,65.490196%,80.784314%);fill-opacity:1;" d="M 17.25 25.5 L 30.75 25.5 C 31.992188 25.5 33 26.507812 33 27.75 L 33 39.75 C 33 40.992188 31.992188 42 30.75 42 L 17.25 42 C 16.007812 42 15 40.992188 15 39.75 L 15 27.75 C 15 26.507812 16.007812 25.5 17.25 25.5 Z M 17.25 25.5 "/>
    <path style=" stroke:none;fill-rule:nonzero;fill:rgb(43.529412%,65.490196%,80.784314%);fill-opacity:0.2;" d="M 17.25 9 L 30.75 9 C 31.992188 9 33 10.007812 33 11.25 L 33 39.75 C 33 40.992188 31.992188 42 30.75 42 L 17.25 42 C 16.007812 42 15 40.992188 15 39.75 L 15 11.25 C 15 10.007812 16.007812 9 17.25 9 Z M 17.25 9 "/>
    <path style=" stroke:none;fill-rule:nonzero;fill:rgb(100%,100%,100%);fill-opacity:0.2;" d="M 24 6 L 27 6 L 27 9 L 24 9 Z M 24 6 "/>
    <path style=" stroke:none;fill-rule:nonzero;fill:rgb(100%,100%,100%);fill-opacity:0.2;" d="M 27 9 L 30 9 L 30 42 L 27 42 Z M 27 9 "/>
  </g>
</svg>

<svg xmlns="http://www.w3.org/2000/svg" width="64" height="64" viewBox="0 0 48 48">
 <defs>
  <linearGradient id="linear0" gradientUnits="userSpaceOnUse" y1="-7" x2="0" y2="23" gradientTransform="matrix(1.125,0,0,1.125,-2.999998,-3)">
   <stop style="stop-color:#829495;stop-opacity:1"/>
   <stop offset="1" style="stop-color:#667678;stop-opacity:1"/>
  </linearGradient>
 </defs>
 <g>
  <path d="m 21.75 6 c -1.246 0 -2.25 1 -2.25 2.25 l 0 0.75 l -2.25 0 c -1.246 0 -2.25 1 -2.25 2.25 l 0 28.5 c 0 1.246 1 2.25 2.25 2.25 l 13.5 0 c 1.246 0 2.25 -1 2.25 -2.25 l 0 -28.5 c 0 -1.246 -1 -2.25 -2.25 -2.25 l -2.25 0 l 0 -0.75 c 0 -1.246 -1 -2.25 -2.25 -2.25 m -4.5 0" style="fill:url(#linear0);stroke:none;fill-rule:nonzero"/>
  <path d="m 17.25 25.5 l 13.5 0 c 1.242 0 2.25 1.01 2.25 2.25 l 0 12 c 0 1.242 -1.01 2.25 -2.25 2.25 l -13.5 0 c -1.242 0 -2.25 -1.01 -2.25 -2.25 l 0 -12 c 0 -1.242 1.01 -2.25 2.25 -2.25 m 0 0" style="fill:#6fa6ce;fill-opacity:1;stroke:none;fill-rule:nonzero"/>
  <path d="m 17.25 9 l 13.5 0 c 1.242 0 2.25 1.01 2.25 2.25 l 0 28.5 c 0 1.242 -1.01 2.25 -2.25 2.25 l -13.5 0 c -1.242 0 -2.25 -1.01 -2.25 -2.25 l 0 -28.5 c 0 -1.242 1.01 -2.25 2.25 -2.25 m 0 0" style="fill:#6fa6ce;fill-opacity:0.2;stroke:none;fill-rule:nonzero"/>
  <path d="m 24 6 l 3 0 l 0 3 l -3 0 m 0 -3" style="fill:#fff;fill-opacity:0.2;stroke:none;fill-rule:nonzero"/>
  <path d="m 27 9 l 3 0 l 0 33 l -3 0 m 0 -33" style="fill:#fff;fill-opacity:0.2;stroke:none;fill-rule:nonzero"/>
 </g>
</svg>
